X: 9
T: Father O'Grady's Visit To Bocca
C: Josie McDermott
Z: Tuuuuuuuuuuunes!!!🎻
S: https://thesession.org/tunes/180#setting50027
R: reel
M: 4/4
L: 1/8
K: Dmaj
|: ABde fded | ~A3G EGde | fded cAAG | EAGE D2de |
fded CAAG | EG E/F/G ABBA | f/e/d ed cAAG | EAGE D4 :|
|: dcde ~f3a | gfed cAAF ~G3A | AGG2 edcA | G ~E3 ABde |
fdfa gfed | cAA2 edcA | edcA G~E3 |D3d:|

